src/img/icon-search.svg

<svg fill="none" height="17" viewBox="0 0 16 17" width="16" xmlns="http://www.w3.org/2000/svg"><path clip-rule="evenodd" d="m6 2.55957c-2.20914 0-4 1.79086-4 4s1.79086 4.00003 4 4.00003 4-1.79089 4-4.00003-1.79086-4-4-4zm-6 4c0-3.31371 2.68629-6 6-6s6 2.68629 6 6c0 1.29583-.4108 2.49572-1.1093 3.47653l4.8164 4.8164c.3905.3905.3905 1.0237 0 1.4142s-1.0237.3905-1.4142 0l-4.81637-4.8164c-.98081.6985-2.1807 1.1093-3.47653 1.1093-3.31371 0-6-2.68632-6-6.00003z" fill="#9ca3af" fill-rule="evenodd"/></svg>

<svg width="16" height="17" viewBox="0 0 16 17" fill="none" xmlns="http://www.w3.org/2000/svg">
<path fill-rule="evenodd" clip-rule="evenodd" d="M6 2.55957C3.79086 2.55957 2 4.35043 2 6.55957C2 8.76871 3.79086 10.5596 6 10.5596C8.20914 10.5596 10 8.76871 10 6.55957C10 4.35043 8.20914 2.55957 6 2.55957ZM0 6.55957C0 3.24586 2.68629 0.55957 6 0.55957C9.31371 0.55957 12 3.24586 12 6.55957C12 7.8554 11.5892 9.05529 10.8907 10.0361L15.7071 14.8525C16.0976 15.243 16.0976 15.8762 15.7071 16.2667C15.3166 16.6572 14.6834 16.6572 14.2929 16.2667L9.47653 11.4503C8.49572 12.1488 7.29583 12.5596 6 12.5596C2.68629 12.5596 0 9.87328 0 6.55957Z" fill="#9CA3AF"/>
</svg>
